!!!OTL: Pao yang yu
!! 00000] TT[00
!! NN
!!!OTL: Song qing lang
!!!ARE: Asia, China,ˇNingxia, Guyuan
!! Ethnic Group: Han
!! I, 201, 2)
!!!SCT: C0059
!!!YEM: Copyright 1995, estate of Helmut Schaffrath.
**kern
*ICvox
*Ivox
*M2/4
*k[b-e-]
*B-:
{8ccc
16ccc
16fff
8ccc
16ccc
16ccc
=1
8ccc
16ccc
16fff
8ccc
8ccc
=2
8ccc
16ccc
16bb-
8.gg
16bb-
=3
2ccc}
=4
{8.bb-
16ccc
8fff
16fff
16ddd
=5
2ccc}
=6
{16gg
16r
16gg
16r
8ccc
16ccc
16bb-
=7
8.gg
16bb-
8gg
8ff
=8
8gg
4ee-
16ee-
16ff
=9
2gg}
=10
{4gg
4cc
=11
4bb-
8gg
8ff
=12
8.ee-
16ff
8gg
8ee-
=13
2cc}
==
!!!AGN: Xiaodiao. NannÅ liqing
!! Es existieren dazu verschiedene Varianten.
!!    Vereinzelt Verzierungen. Bb - Eb
!!!ONB: ESAC (Essen Associative Code) Database: CHINA
!!!AMT: simple duple
!!!AIN: vox
!!!EED: Helmut Schaffrath
!!!EEV: 1.0
*-
